;FLAVOR:Marlin
;TIME:7075
;Filament used: 4.93268m
;Layer height: 0.2
;MINX:86.2
;MINY:84.7
;MINZ:0.2
;MAXX:133.8
;MAXY:135.3
;MAXZ:15.6
;Generated with Cura_SteamEngine 4.13.1
M140 S60
M105
M190 S60
M104 S215
M105
M109 S215
M82 ;absolute extrusion mode
; Ender 3 Custom Start G-code
G92 E0 ; Reset Extruder
G28 ; Home all axes
G1 Z2.0 F3000 ; Move Z Axis up little to prevent scratching of Heat Bed
G1 X0.1 Y20 Z0.3 F5000.0 ; Move to start position
G1 X0.1 Y200.0 Z0.3 F1500.0 E15 ; Draw the first line
G1 X0.4 Y200.0 Z0.3 F5000.0 ; Move to side a little
G1 X0.4 Y20 Z0.3 F1500.0 E30 ; Draw the second line
G92 E0 ; Reset Extruder
G1 Z2.0 F3000 ; Move Z Axis up little to prevent scratching of Heat Bed
G1 X5 Y20 Z0.3 F5000.0 ; Move over to prevent blob squish
G92 E0
G92 E0
G1 F1500 E-6.5
;LAYER_COUNT:78
;LAYER:0
M107
G0 F6000 X92.822 Y93.42 Z0.2
;TYPE:SKIRT
G1 F1500 E0
G1 F1200 X93.39 Y93.463 E0.01895
G1 X93.424 Y93.51 E0.02088
G1 X93.416 Y93.629 E0.02484
G1 X92.822 Y93.42 E0.04579
G0 F6000 X92.356 Y93.681
G1 F1200 X92.175 Y93.581 E0.05266
G1 X92.118 Y93.223 E0.06472
G1 X92.291 Y92.986 E0.07448
G1 X92.384 Y92.986 E0.07757
G1 X93.605 Y93.078 E0.1183
G1 X93.833 Y93.392 E0.13121
G1 X93.787 Y94.053 E0.15324
G1 X93.592 Y94.116 E0.16006
G1 X92.356 Y93.681 E0.20364
G0 F6000 X92.192 Y94.047
G1 F1200 X91.81 Y93.836 E0.21816
G1 X91.698 Y93.121 E0.24223
G1 X92.087 Y92.586 E0.26423
G1 X92.401 Y92.586 E0.27467
G1 X93.82 Y92.693 E0.322
G1 X94.243 Y93.275 E0.34593
G1 X94.167 Y94.35 E0.38177
G1 X93.589 Y94.539 E0.402
G1 X92.192 Y94.047 E0.45126
G0 F6000 X92.026 Y94.413
G1 F1200 X91.446 Y94.091 E0.47333
G1 X91.277 Y93.021 E0.50936
G1 X91.883 Y92.186 E0.54367
G1 X92.417 Y92.186 E0.56143
G1 X94.034 Y92.308 E0.61537
G1 X94.652 Y93.159 E0.65035
G1 X94.546 Y94.647 E0.69996
G1 X93.584 Y94.961 E0.73362
G1 X92.026 Y94.413 E0.78855
G1 F1500 E-5.71145
G0 F6000 X105.647 Y123.855
G1 F1500 E0.78855
G1 F1200 X106.553 Y123.855 E0.81869
G1 X107.273 Y124.379 E0.8483
G1 X107.487 Y125.734 E0.89393
G1 X107.242 Y126.853 E0.93203
G1 X106.516 Y127.382 E0.96191
G1 X105.61 Y127.382 E0.99204
G1 X104.885 Y126.854 E1.02187
G1 X104.611 Y125.519 E1.0672
G1 X104.916 Y124.387 E1.10619
G1 X105.647 Y123.855 E1.13626
G0 F6000 X105.776 Y124.255
G1 F1200 X106.424 Y124.255 E1.15782
G1 X106.904 Y124.604 E1.17755
G1 X107.081 Y125.722 E1.2152
G1 X106.884 Y126.62 E1.24578
G1 X106.387 Y126.982 E1.26623
G1 X105.739 Y126.982 E1.28778
G1 X105.247 Y126.623 E1.30804
G1 X105.022 Y125.53 E1.34516
G1 X105.266 Y124.627 E1.37627
G1 X105.776 Y124.255 E1.39726
G0 F6000 X105.906 Y124.655
G1 F1200 X106.294 Y124.655 E1.41017
G1 X106.535 Y124.831 E1.42009
G1 X106.674 Y125.708 E1.44963
G1 X106.525 Y126.386 E1.47271
G1 X106.257 Y126.582 E1.48376
G1 X105.869 Y126.582 E1.49666
G1 X105.607 Y126.391 E1.50745
G1 X105.434 Y125.544 E1.5362
G1 X105.616 Y124.866 E1.55955
G1 X105.906 Y124.655 E1.57148
G0 F6000 X106.037 Y125.055
G1 F1200 X106.163 Y125.055 E1.57567
G1 X106.267 Y125.696 E1.59727
G1 X106.167 Y126.152 E1.61279
G1 X106 Y126.182 E1.61844
G1 X105.967 Y126.158 E1.61979
G1 X105.844 Y125.558 E1.64016
G1 X105.965 Y125.107 E1.6557
G1 X106.037 Y125.055 E1.65865
G0 F6000 X113.707 Y122.617
G1 F1200 X114.613 Y122.617 E1.68878
G1 X115.348 Y123.152 E1.71902
G1 X115.634 Y124.031 E1.74976
G1 X115.396 Y125.513 E1.79969
G1 X115.098 Y126.644 E1.83859
G1 X114.368 Y127.176 E1.86863
G1 X113.462 Y127.176 E1.89877
G1 X112.736 Y126.647 E1.92864
G1 X112.426 Y125.228 E1.97695
G1 X112.977 Y123.149 E2.04849
G1 X113.707 Y122.617 E2.07853
G0 F6000 X113.836 Y123.017
G1 F1200 X114.484 Y123.017 E2.10008
G1 X115.007 Y123.398 E2.1216
G1 X115.224 Y124.064 E2.1449
G1 X115.004 Y125.431 E2.19095
G1 X114.747 Y126.406 E2.22449
G1 X114.239 Y126.776 E2.24539
G1 X113.591 Y126.776 E2.26694
G1 X113.094 Y126.414 E2.2874
G1 X112.838 Y125.238 E2.32743
G1 X113.327 Y123.387 E2.3911
G1 X113.836 Y123.017 E2.41203
G0 F6000 X113.966 Y123.417
G1 F1200 X114.354 Y123.417 E2.42494
G1 X114.667 Y123.645 E2.43782
G1 X114.813 Y124.095 E2.45355
G1 X114.612 Y125.348 E2.49576
G1 X114.397 Y126.166 E2.52389
G1 X114.109 Y126.376 E2.53574
G1 X113.721 Y126.376 E2.54865
G1 X113.453 Y126.181 E2.55967
G1 X113.25 Y125.247 E2.59146
G1 X113.678 Y123.627 E2.64719
G1 X113.966 Y123.417 E2.65905
G0 F6000 X114.097 Y123.817
G1 F1200 X114.223 Y123.817 E2.66324
G1 X114.328 Y123.893 E2.66755
G1 X114.403 Y124.126 E2.67569
G1 X114.221 Y125.262 E2.71396
G1 X114.046 Y125.927 E2.73683
G1 X113.978 Y125.976 E2.73962
G1 X113.812 Y125.947 E2.74522
G1 X113.661 Y125.255 E2.76878
G1 X114.028 Y123.868 E2.8165
G1 X114.097 Y123.817 E2.81935
G1 F1500 E-3.68065
G0 F6000 X125.2 Y93.952
G1 F1500 E2.81935
G1 F1200 X125.615 Y92.651 E2.86477
G1 X126.582 Y92.336 E2.8986
G1 X126.955 Y92.574 E2.91331
G1 X127.125 Y92.595 E2.91901
G1 X128.142 Y92.263 E2.95459
G1 X128.726 Y93.067 E2.98764
G1 X128.555 Y94.444 E3.03379
G1 X127.55 Y94.772 E3.06896
G1 X125.795 Y94.772 E3.12733
G1 X125.2 Y93.952 E3.16102
G0 F6000 X125.642 Y93.881
G1 F1200 X125.934 Y92.968 E3.19291
G1 X126.526 Y92.774 E3.21363
G1 X126.74 Y92.911 E3.22208
G1 X126.942 Y92.993 E3.22933
G1 X127.249 Y92.975 E3.23956
G1 X127.99 Y92.733 E3.26548
G1 X128.31 Y93.173 E3.28358
G1 X128.189 Y94.143 E3.31609
G1 X127.487 Y94.372 E3.34065
G1 X125.999 Y94.372 E3.39014
G1 X125.642 Y93.881 E3.41033
G0 F6000 X126.085 Y93.81
G1 F1200 X126.252 Y93.285 E3.42866
G1 X126.471 Y93.214 E3.43631
G1 X126.524 Y93.248 E3.43841
G1 X126.781 Y93.364 E3.44779
G1 X127.06 Y93.405 E3.45717
G1 X127.373 Y93.356 E3.4677
G1 X127.838 Y93.204 E3.48398
G1 X127.893 Y93.281 E3.48712
G1 X127.824 Y93.841 E3.50589
G1 X127.421 Y93.972 E3.51998
G1 X126.203 Y93.972 E3.56049
G1 X126.085 Y93.81 E3.56716
G1 F1500 E-2.93284
;MESH:Makita_terminal.stl
G0 F6000 X123.6 Y93.81
G0 X122.6 Y97.4
;TYPE:WALL-INNER
G1 F1500 E3.56716
G1 F1200 X131.4 Y97.4 E3.85985
G1 X131.4 Y89.6 E4.11928
G1 X122.6 Y89.6 E4.41197
G1 X122.6 Y97.4 E4.6714
G0 F6000 X123 Y97
G1 F1200 X131 Y97 E4.93748
G1 X131 Y90 E5.1703
G1 X123 Y90 E5.43638
G1 X123 Y97 E5.6692
G0 F6000 X123.4 Y96.6
G1 F1200 X130.6 Y96.6 E5.90867
G1 X130.6 Y90.4 E6.11489
G1 X123.4 Y90.4 E6.35436
G1 X123.4 Y96.6 E6.56057
G0 F6000 X123.8 Y96.2
;TYPE:WALL-OUTER
G1 F1200 X130.2 Y96.2 E6.77344
G1 X130.2 Y90.8 E6.95304
G1 X123.8 Y90.8 E7.16591
G1 X123.8 Y96.2 E7.34551
G1 F1500 E0.84551
G0 F6000 X123.5 Y96.2
G0 X121.218 Y89.331
G0 X111.672 Y87.831
G0 X108.332 Y87.833
G0 X98.782 Y89.332
G0 X97.4 Y97.4
;TYPE:WALL-INNER
G1 F1500 E7.34551
G1 F1200 X97.4 Y89.6 E7.60494
G1 X88.6 Y89.6 E7.89763
G1 X88.6 Y97.4 E8.15706
G1 X97.4 Y97.4 E8.44975
G0 F6000 X97 Y97
G1 F1200 X97 Y90 E8.68257
G1 X89 Y90 E8.94865
G1 X89 Y97 E9.18147
G1 X97 Y97 E9.44755
G0 F6000 X96.6 Y96.6
G1 F1200 X96.6 Y90.4 E9.65376
G1 X89.4 Y90.4 E9.89324
G1 X89.4 Y96.6 E10.09945
G1 X96.6 Y96.6 E10.33892
G0 F6000 X96.2 Y96.2
;TYPE:WALL-OUTER
G1 F1200 X96.2 Y90.8 E10.51853
G1 X89.8 Y90.8 E10.73139
G1 X89.8 Y96.2 E10.911
G1 X96.2 Y96.2 E11.12386
G1 F1500 E4.62386
G0 F6000 X96.5 Y96.2
G0 X95.366 Y98.773
G0 X89.332 Y98.782
G0 X89.333 Y120.168
G0 X99.142 Y120.18
G0 X100.6 Y133.4
;TYPE:WALL-INNER
G1 F1500 E11.12386
G1 F1200 X119.4 Y133.4 E11.74915
G1 X119.4 Y119.6 E12.20814
G1 X100.6 Y119.6 E12.83343
G1 X100.6 Y133.4 E13.29242
G0 F6000 X101 Y133
G1 F1200 X119 Y133 E13.89111
G1 X119 Y120 E14.32349
G1 X101 Y120 E14.92217
G1 X101 Y133 E15.35455
G0 F6000 X101.4 Y132.6
G1 F1200 X109.6 Y132.6 E15.62728
G1 X109.6 Y120.4 E16.03306
G1 X101.4 Y120.4 E16.30579
G1 X101.4 Y132.6 E16.71157
G1 F1500 E10.21157
G0 F6000 X109.428 Y132.428
G1 F1500 E16.71157
G0 F6000 X109.2 Y132.2
;TYPE:WALL-OUTER
G1 F1200 X109.2 Y120.8 E17.09073
G1 X101.8 Y120.8 E17.33686
G1 X101.8 Y132.2 E17.71602
G1 X109.2 Y132.2 E17.96215
G0 F6000 X109.5 Y132.2
G0 X110.4 Y132.6
;TYPE:WALL-INNER
G1 F1200 X118.6 Y132.6 E18.23488
G1 X118.6 Y120.4 E18.64065
G1 X110.4 Y120.4 E18.91339
G1 X110.4 Y132.6 E19.31916
G0 F6000 X110.8 Y132.2
;TYPE:WALL-OUTER
G1 F1200 X118.2 Y132.2 E19.56528
G1 X118.2 Y120.8 E19.94445
G1 X110.8 Y120.8 E20.19058
G1 X110.8 Y132.2 E20.56974
G0 F6000 X110.5 Y132.2
G0 X109.428 Y132.428
G0 X101.572 Y132.428
G0 X99.4 Y120.351
;TYPE:WALL-INNER
G1 F1200 X89.151 Y120.35 E20.91062
G1 X89.15 Y98.6 E21.63403
G1 X98.6 Y98.6 E21.94834
G1 X98.6 Y89.15 E22.26265
G1 X108.149 Y89.149 E22.58025
G1 X108.15 Y87.651 E22.63007
G1 X111.854 Y87.649 E22.75327
G1 X111.857 Y89.149 E22.80316
G1 X121.4 Y89.149 E23.12056
G1 X121.4 Y98.6 E23.4349
G1 X130.849 Y98.6 E23.74918
G1 X130.85 Y120.349 E24.47255
G1 X120.6 Y120.351 E24.81347
G1 X120.6 Y118.4 E24.87836
G1 X99.4 Y118.4 E25.58347
G1 X99.4 Y120.351 E25.64836
G0 F6000 X99.8 Y120.751
G1 F1200 X88.751 Y120.75 E26.01586
G1 X88.75 Y98.2 E26.76587
G1 X98.2 Y98.2 E27.08018
G1 X98.2 Y88.8 E27.39282
G1 X88.749 Y88.8 E27.70717
G1 X88.749 Y88.751 E27.7088
G1 X98.199 Y88.751 E27.74738
G1 X107.749 Y88.749 E28.06502
G1 X107.75 Y87.251 E28.11484
G1 X112.253 Y87.249 E28.26461
G1 X112.256 Y88.749 E28.3145
G1 X121.8 Y88.749 E28.63193
G1 X131.249 Y88.75 E28.94621
G1 X131.249 Y88.8 E28.94787
G1 X121.8 Y88.8 E28.98765
G1 X121.8 Y98.2 E29.30029
G1 X131.249 Y98.2 E29.61457
G1 X131.25 Y120.749 E30.36455
G1 X120.2 Y120.751 E30.73208
G1 X120.2 Y118.8 E30.79697
G1 X99.8 Y118.8 E31.47547
G1 X99.8 Y120.751 E31.54036
G0 F6000 X100.2 Y121.151
G1 F1200 X88.351 Y121.15 E31.93446
G1 X88.35 Y97.8 E32.71109
G1 X97.8 Y97.8 E33.0254
G1 X97.8 Y89.2 E33.31143
G1 X88.349 Y89.2 E33.62577
G1 X88.349 Y88.351 E33.65401
G1 X107.349 Y88.349 E34.28596
G1 X107.35 Y86.851 E34.33578
G1 X112.652 Y86.849 E34.51212
G1 X112.655 Y88.349 E34.56201
G1 X131.649 Y88.35 E35.19376
G1 X131.649 Y89.2 E35.22203
G1 X122.2 Y89.2 E35.5363
G1 X122.2 Y97.8 E35.82234
G1 X131.649 Y97.8 E36.13662
G1 X131.65 Y121.149 E36.91321
G1 X119.8 Y121.151 E37.30734
G1 X119.8 Y119.2 E37.37223
G1 X100.2 Y119.2 E38.02413
G1 X100.2 Y121.151 E38.08902
G0 F6000 X99.951 Y133.551
G1 F1200 X99.949 Y121.551 E38.48814
G1 X87.951 Y121.55 E38.8872
G1 X87.949 Y87.951 E40.0047
G1 X106.949 Y87.949 E40.63665
G1 X106.95 Y86.451 E40.68647
G1 X113.051 Y86.449 E40.88939
G1 X113.054 Y87.949 E40.93928
G1 X132.049 Y87.95 E41.57106
G1 X132.05 Y121.549 E42.68856
G1 X120.051 Y121.551 E43.08765
G1 X120.05 Y133.549 E43.48671
G1 X119.401 Y133.549 E43.50829
G1 X100.601 Y133.55 E43.7426
G1 X99.951 Y133.551 E43.76422
G0 F6000 X99.551 Y133.951
G1 F1200 X99.549 Y121.951 E44.16334
G1 X87.551 Y121.95 E44.5624
G1 X87.549 Y87.551 E45.70651
G1 X106.549 Y87.549 E46.33846
G1 X106.55 Y86.051 E46.38828
G1 X113.45 Y86.049 E46.61777
G1 X113.453 Y87.549 E46.66766
G1 X132.449 Y87.55 E47.29947
G1 X132.45 Y121.949 E48.44359
G1 X120.451 Y121.951 E48.84268
G1 X120.45 Y133.949 E49.24173
G1 X99.551 Y133.951 E49.93684
G0 F6000 X99.151 Y134.351
G1 F1200 X99.149 Y122.351 E50.33596
G1 X87.151 Y122.35 E50.73501
G1 X87.149 Y87.151 E51.90574
G1 X106.149 Y87.149 E52.53768
G1 X106.15 Y85.651 E52.5875
G1 X113.849 Y85.649 E52.84357
G1 X113.852 Y87.149 E52.89346
G1 X132.849 Y87.15 E53.52531
G1 X132.85 Y122.349 E54.69603
G1 X120.851 Y122.351 E55.09512
G1 X120.85 Y134.349 E55.49417
G1 X99.151 Y134.351 E56.21588
G0 F6000 X98.829 Y134.681
;TYPE:WALL-OUTER
G1 F1200 X98.751 Y134.506 E56.22226
G1 X98.749 Y122.751 E56.61323
G1 X87.013 Y122.75 E57.00357
G1 X86.829 Y122.681 E57.01011
G1 X86.751 Y122.506 E57.01648
G1 X86.749 Y87.016 E58.19688
G1 X86.82 Y86.828 E58.20357
G1 X86.994 Y86.751 E58.20989
G1 X105.749 Y86.749 E58.83369
G1 X105.75 Y85.513 E58.8748
G1 X105.82 Y85.328 E58.88138
G1 X105.994 Y85.251 E58.8877
G1 X113.984 Y85.249 E59.15345
G1 X114.171 Y85.319 E59.16009
G1 X114.249 Y85.494 E59.16647
G1 X114.251 Y86.749 E59.20821
G1 X132.987 Y86.75 E59.83137
G1 X133.171 Y86.819 E59.83791
G1 X133.249 Y86.994 E59.84428
G1 X133.25 Y122.487 E61.02478
G1 X133.181 Y122.671 E61.03132
G1 X133.006 Y122.749 E61.03769
G1 X121.251 Y122.751 E61.42866
G1 X121.25 Y134.487 E61.819
G1 X121.181 Y134.671 E61.82554
G1 X121.006 Y134.749 E61.83191
G1 X99.016 Y134.751 E62.5633
G1 X98.829 Y134.681 E62.56994
G0 F6000 X99.046 Y134.452
G0 X99.009 Y120.24
G0 X99.01 Y119.961
;TYPE:SKIN
G1 F1200 X89.541 Y119.96 E62.88488
G1 X89.54 Y98.99 E63.58235
G1 X98.99 Y98.99 E63.89666
G1 X98.99 Y89.54 E64.21096
G1 X108.539 Y89.539 E64.52857
G1 X108.54 Y88.041 E64.57839
G1 X111.464 Y88.039 E64.67564
G1 X111.467 Y89.539 E64.72553
G1 X121.01 Y89.539 E65.04293
G1 X121.01 Y98.99 E65.35728
G1 X130.459 Y98.99 E65.67155
G1 X130.46 Y119.959 E66.36898
G1 X120.99 Y119.961 E66.68396
G1 X120.99 Y118.01 E66.74885
G1 X99.01 Y118.01 E67.4799
G1 X99.01 Y119.961 E67.54479
G0 F6000 X99.009 Y120.24
G0 X89.817 Y120.24
G0 X89.818 Y119.799
G1 F1200 X89.7 Y119.681 E67.55034
G0 F6000 X89.7 Y119.115
G1 F1200 X90.383 Y119.799 E67.58249
G0 F6000 X90.949 Y119.799
G1 F1200 X89.7 Y118.549 E67.64127
G0 F6000 X89.7 Y117.984
G1 F1200 X91.515 Y119.799 E67.72664
G0 F6000 X92.08 Y119.799
G1 F1200 X89.7 Y117.418 E67.83861
G0 F6000 X89.7 Y116.852
G1 F1200 X92.646 Y119.799 E67.97721
G0 F6000 X93.212 Y119.799
G1 F1200 X89.7 Y116.287 E68.1424
G0 F6000 X89.7 Y115.721
G1 F1200 X93.777 Y119.799 E68.33419
G0 F6000 X94.343 Y119.799
G1 F1200 X89.7 Y115.155 E68.55261
G0 F6000 X89.7 Y114.59
G1 F1200 X94.909 Y119.799 E68.79762
G0 F6000 X95.474 Y119.799
G1 F1200 X89.7 Y114.024 E69.06924
G0 F6000 X89.7 Y113.458
G1 F1200 X96.04 Y119.799 E69.36748
G0 F6000 X96.606 Y119.799
G1 F1200 X89.7 Y112.893 E69.69231
G0 F6000 X89.7 Y112.327
G1 F1200 X97.172 Y119.799 E70.04377
G0 F6000 X97.737 Y119.799
G1 F1200 X89.7 Y111.761 E70.42183
G0 F6000 X89.7 Y111.196
G1 F1200 X98.303 Y119.799 E70.82649
G0 F6000 X98.849 Y119.78
G1 F1200 X89.7 Y110.63 E71.25686
G0 F6000 X89.7 Y110.064
G1 F1200 X98.849 Y119.214 E71.68722
G0 F6000 X98.849 Y118.648
G1 F1200 X89.7 Y109.499 E72.11756
G0 F6000 X89.7 Y108.933
G1 F1200 X98.849 Y118.083 E72.54793
G0 F6000 X99.182 Y117.849
G1 F1200 X89.7 Y108.367 E72.99393
G0 F6000 X89.7 Y107.801
G1 F1200 X99.748 Y117.849 E73.46656
G0 F6000 X100.313 Y117.849
G1 F1200 X89.7 Y107.236 E73.96576
G0 F6000 X89.7 Y106.67
G1 F1200 X100.879 Y117.849 E74.49159
G0 F6000 X101.445 Y117.849
G1 F1200 X89.7 Y106.104 E75.04403
G0 F6000 X89.7 Y105.539
G1 F1200 X102.01 Y117.849 E75.62306
G0 F6000 X102.576 Y117.849
G1 F1200 X89.7 Y104.973 E76.22871
G0 F6000 X89.7 Y104.407
G1 F1200 X103.142 Y117.849 E76.86098
G0 F6000 X103.707 Y117.849
G1 F1200 X89.7 Y103.842 E77.51982
G0 F6000 X89.7 Y103.276
G1 F1200 X104.273 Y117.849 E78.20529
G0 F6000 X104.839 Y117.849
G1 F1200 X89.7 Y102.71 E78.91738
G0 F6000 X89.7 Y102.145
G1 F1200 X105.404 Y117.849 E79.65605
G0 F6000 X105.97 Y117.849
G1 F1200 X89.7 Y101.579 E80.42134
G0 F6000 X89.7 Y101.013
G1 F1200 X106.536 Y117.849 E81.21326
G0 F6000 X107.101 Y117.849
G1 F1200 X89.7 Y100.448 E82.03175
G0 F6000 X89.7 Y99.882
G1 F1200 X107.667 Y117.849 E82.87686
G0 F6000 X108.233 Y117.849
G1 F1200 X89.7 Y99.316 E83.7486
G0 F6000 X90.098 Y99.149
G1 F1200 X108.798 Y117.849 E84.62819
G0 F6000 X109.364 Y117.849
G1 F1200 X90.664 Y99.149 E85.50778
G0 F6000 X91.23 Y99.149
G1 F1200 X109.93 Y117.849 E86.38737
G0 F6000 X110.496 Y117.849
G1 F1200 X91.795 Y99.149 E87.26698
G0 F6000 X92.361 Y99.149
G1 F1200 X111.061 Y117.849 E88.14657
G0 F6000 X111.627 Y117.849
G1 F1200 X92.927 Y99.149 E89.02616
G0 F6000 X93.492 Y99.149
G1 F1200 X112.193 Y117.849 E89.90578
G0 F6000 X112.758 Y117.849
G1 F1200 X94.058 Y99.149 E90.78537
G0 F6000 X94.624 Y99.149
G1 F1200 X113.324 Y117.849 E91.66496
G0 F6000 X113.89 Y117.849
G1 F1200 X95.19 Y99.149 E92.54455
G0 F6000 X95.755 Y99.149
G1 F1200 X114.455 Y117.849 E93.42414
G0 F6000 X115.021 Y117.849
G1 F1200 X96.321 Y99.149 E94.30373
G0 F6000 X96.887 Y99.149
G1 F1200 X115.587 Y117.849 E95.18332
